X:1
T:county derry
T:Irish Tune from County Derry
%%score 1 2 3 4
L:1/8
Q:1/4=80
M:4/4
K:F
V:1 bass nm="Trombone" snm="Tbn."
V:2 bass nm="Trombone" snm="Tbn."
V:3 bass nm="Trombone" snm="Tbn."
V:4 bass nm="Bass Trombone" snm="B. Tbn."
V:1
 z2!mp! (E,2 F,2 G,2 | A,6 G,2 | A,2 D2 C2 A,2 | G,2 F,2 D,4- |"^-1" D,2) (F,2 A,2 B,2 | C6 D2 | %6
 C2 A,2 F,2 A,2 | G,8- |"^-1" G,2) (E,2 F,2 G,2 | A,6 G,2 | A,2 D2 C2 A,2 | G,2 F,2 D,2 ^C,2 | %12
"^-1" D,2) (E,2 F,2 G,2 | A,6 B,2 | A,2 G,2 F,2 G,2 | F,8) | z2!mf! (!>!C2 !>!D2 !>!E2 | !>!F6 E2 | %18
 E2 D2 C2 A,2 | C2 A,2 F,4- |"^-1" F,2) (C2 D2 E2 | F6 E2 | E2 D2 C2 A,2 | G,8- | %24
"^-1" G,2)"_Rall." (C2 C2 C2 | A6 G2 | G2 F2 D2 F2 | C2 A,2 F,4- |"^-1" F,2) z2 z4 | z8 | z8 | %31
!pp! C,8 |] %32
V:2
 z2!p! (C,2 D,2 E,2 | C,6 D,2 | C,2 G,2 F,4 | G,2 F,6- | F,2) (F,4 G,2 | F,6 G,2 | A,2 C2 C2 D2 | %7
 E8- | E2) (E2 D2 C2 | F4 F,2 G,2 | A,2 B,2 A,2 F,2 | D,2 C,2 B,,3 A,, | B,,4) (C,4 | F,6 F,2 | %14
 C,2 F,2 A,2 E,2 | F,8) | z2!mp! (E,2 F,2 G,2 | C6 A,2 | C2 B,2 A,2) (C,2 | F,2 E,2 D,4- | %20
 D,2) (F,2 G,2 B,2 | A,6- A,C | C2 B,2 A,2 F,2) | (G,,2 A,,2 =B,,2 D,2 |"^-1" C,2) (D,2 E,2 G,2 | %25
 F,2) (!>!C,4 E,2 | E,2 D,2 C,2 B,,2 | B,,2 A,,2 G,,4-) | G,,2"_Rit."!mp! (E,2 F,2 G,2 | %29
 A,2 D2 C2 A,2 | G,2 F,2 D,2 E,2 |!pp! F,8) |] %32
V:3
 z2!p! (B,,2 B,,2 B,,2 | G,,6 B,,2 | C,2 D,2 C,4 | D,8- | D,2) (C,4 C,2 | C,6 B,,2 | %6
 A,,2 F,,2 A,,2 =B,,2 | (C,4 B,,4 | C,2)) (B,,2 A,,2 G,,2 | F,,6 E,,2 | F,,2 G,,2 A,,2 C,2 | %11
 B,,2 A,,2 G,,2 F,,2 |"^-1" D,,2) (C,,2 D,,2 E,,2 | F,,2 A,,2 C,2 D,2 | F,2 D,2 C,2 G,,2 | F,,8) | %16
 z2!mp! (B,2 B,2 B,2 | A,4 F,4 | F,2 G,2 A,2 C2 | F,4 A,4- | A,2) (C2 C2 B,2 | A,4 F,4 | %22
 F,2 G,2 A,2 C2 | F4 E2 D2 |"^-1" E2) (D2 C2 B,2 | F4 C4 | D8) | (C2 A,2 =B,4- | %28
 B,2) (G,2 F,2 _E,2- | E,8 | D,4 B,,4 |!pp! F,,8) |] %32
V:4
 z2!p! (C,,2 C,,2 C,,2 | F,,8- | F,,2 B,,,2 A,,,4 | B,,,8- | B,,,2) (C,,2 F,,2 G,,2 | A,,6 B,,2 | %6
 C,2 F,,2 E,,2 D,,2 | C,,8- | C,,4) (C,,4 | F,,4 C,,2 B,,,2 | A,,,2 G,,,2 A,,,4 | %11
 B,,,2 D,,2) G,,4- |"^-1" G,,2 (G,,2 A,,2 B,,2 | A,,4 E,,2 D,,2 | C,,2 B,,,2 C,,4 | F,,,8) | %16
 z2!mp! (C,,2 C,,2 C,,2 | F,,4 A,,4 | B,,,2 D,,2 F,,4 | A,,4 D,4- | D,2) (A,,2 B,,2 C,2 | %21
 D,4 A,,4 | B,,,2 D,,2 F,,2 E,,2 | D,,4 G,,4 | E,,4) (E,,2 E,,2 | F,,,4 A,,,4 | B,,,8 | %27
 C,,4 D,,4- | D,,2) (B,,2 A,,2 G,,2 | F,,6 F,,2 | B,,,2 A,,,2 G,,,2 C,,2 |!pp! F,,,8) |] %32

